X: 3172
Q: "Reel."
M: C
L: 1/8
K: Bb
efge defd |[1 cdcB AFGA :|[2 cBcd B3 ||
|: f |\
b2(ba) bfdf | b2(ba) bfdf |\
efge defe |[1 cdcB Acc :|[2 cBcd B3 |]


